X: 1
T: Collaborative Composition
M: 4/4
L: 1/4
Q: 1/4=120
K: C
V:1
%%MIDI gchord b2b2
%%MIDI program 1
%%MIDI chordprog 48
%%MIDI bassprog 45
| "C" C2 E2 | "F" F2 D2 | "G" G2 B2 | "C" C4 | % measure 1-4
%%MIDI program 1
%%MIDI chordprog 48
%%MIDI bassprog 45
| "Dm" D2 F2 | "G" G3 A | "C" E2 G2 | "C" C4 | % measure 5-8
%%MIDI program 1
%%MIDI chordprog 19
%%MIDI bassprog 45
| "Am" A2 C2 | "Dm" D3 F | "G" G2 A2 | "C" C4 | % measure 9-12
%%MIDI program 1
%%MIDI chordprog 48
%%MIDI bassprog 45
| "C" G2 E2 | "G" G2 B2 | "Dm" D2 F2 | "C" C4 | % measure 13-16